src/img/atribuicao-06.svg

<svg width="45" height="45" viewBox="0 0 45 45" fill="none" xmlns="http://www.w3.org/2000/svg">
<path d="M42.8625 25.7203H40.7109V23.5828H38.5734V21.4312H36.4359V19.2937H34.2844V17.1562H32.1469V19.2937H29.9953V21.4312H27.8578V23.5828H23.5688V21.4312H21.4312V23.5828H17.1422V21.4312H15.0047V19.2937H12.8531V17.1562H10.7156V19.2937H8.57812V21.4312H6.42656V23.5828H4.28906V25.7203H2.1375V27.8578H0V32.1469H2.1375V40.725H8.57812V32.1469H6.42656V38.5734H4.28906V27.8578H6.42656V25.7203H8.57812V23.5828H10.7156V21.4312H12.8531V23.5828H15.0047V25.7203H17.1422V27.8578H15.0047V30.0094H8.57812V32.1469H10.7156V36.4359H12.8531V45H19.2938V36.4359H17.1422V42.8625H15.0047V32.1469H17.1422V30.0094H19.2938V27.8578H21.4312V25.7203H23.5688V27.8578H25.7203V30.0094H27.8578V32.1469H29.9953V42.8625H27.8578V36.4359H25.7203V45H32.1469V36.4359H34.2844V32.1469H36.4359V30.0094H29.9953V27.8578H27.8578V25.7203H29.9953V23.5828H32.1469V21.4312H34.2844V23.5828H36.4359V25.7203H38.5734V27.8578H40.7109V38.5734H38.5734V32.1469H36.4359V40.725H42.8625V32.1469H45V27.8578H42.8625V25.7203Z" fill="#3B2027"/>
<path d="M19.2939 34.2986H25.7205V36.4361H19.2939V34.2986Z" fill="#3B2027"/>
<path d="M19.2937 0V2.15156H17.1421V4.28906H15.0046V10.7156H17.1421V15.0047H19.2937V17.1562H21.4312V19.2937H23.5687V17.1562H25.7203V15.0047H27.8578V10.7156H29.9953V4.28906H27.8578V2.15156H25.7203V0H19.2937ZM25.7203 8.57812H23.5687V10.7156H21.4312V8.57812H19.2937V6.44062H21.4312V4.28906H23.5687V6.44062H25.7203V8.57812Z" fill="#3B2027"/>
</svg>

<svg width="45" height="45" fill="none" xmlns="http://www.w3.org/2000/svg"><path d="M42.862 25.72h-2.151v-2.137h-2.138V21.43h-2.137v-2.137h-2.152v-2.138h-2.137v2.138h-2.152v2.137h-2.137v2.152h-4.29V21.43h-2.137v2.152h-4.289V21.43h-2.137v-2.137h-2.152v-2.138h-2.137v2.138H8.578v2.137H6.427v2.152H4.289v2.137H2.138v2.138H0v4.289h2.138v8.578h6.44v-8.578H6.427v6.426H4.289V27.858h2.138V25.72h2.151v-2.137h2.138V21.43h2.137v2.152h2.152v2.137h2.137v2.138h-2.137v2.151H8.578v2.138h2.138v4.289h2.137V45h6.44v-8.564h-2.15v6.426h-2.138V32.147h2.137v-2.138h2.152v-2.151h2.137V25.72h2.138v2.138h2.151v2.151h2.138v2.138h2.137v10.715h-2.137v-6.426H25.72V45h6.427v-8.564h2.137v-4.29h2.152V30.01h-6.44v-2.151h-2.138V25.72h2.137v-2.137h2.152V21.43h2.137v2.152h2.152v2.137h2.137v2.138h2.138v10.715h-2.138v-6.426h-2.137v8.578h6.426v-8.578H45v-4.29h-2.138V25.72z" fill="#3B2027"/><path d="M19.294 34.299h6.427v2.137h-6.427V34.3zm0-34.299v2.152h-2.152v2.137h-2.137v6.427h2.137v4.289h2.152v2.151h2.137v2.138h2.138v-2.138h2.151v-2.151h2.138v-4.29h2.137V4.29h-2.137V2.152H25.72V0h-6.426zm6.426 8.578h-2.15v2.138h-2.14V8.578h-2.137V6.441h2.137V4.289h2.138v2.152h2.151v2.137z" fill="#3B2027"/></svg>
